X: 6
T: The Morning Star
R: reel
M: 4/4
L: 1/8
K: Bmin
B2BA BGEF | G2Bd efgd | B2BA BGEF | GBAF G3A :|
Bdef gfeg | fedf edBA | Bdef gfeg | fedf e3d |
Bdef gfeg | fedf edBA | Bddc defg | afbf gfed ||


Tune 828	Setting 24056

